X: 1936
T: Vefâ Yoktur Akan Suda
C: Tanburî Mustafa Çavuş
O: Turkey
F: http://compmusic.upf.edu/node/140
N: huzzam--sarki--aksak--vefa_yoktur--tanburi_mustafa_cavus
N: makam= huzzam
N: form= sarki
N: usul= aksak = 9/8
M: 9/8
L: 1/16
K: C _1/4B _3/4e ^3/4f 
Q: 1/4=132
%%MIDI tuningsystem comma53
z4 B2g2 f2e2 f2e2 d2 | {z}de dcd2 e2f4ga f2e2  | \
w:  Ve fâ  yok *  tur   |  a *  *  *  kan  *  su da    | 
d3c {z}d2g2 g2f2 e2d2 c2 | 
w:  *  *  Ne  hâl_ ol *  du   | 
{z}e3de2 f2d4{z}B2 c2d2  | B6G2 B2c2 d4 c2 | \
w:  bi *  *  *  ze  bur  |  da  a man_ a man    | 
d4{z}B2 c2B3AG6  | {z}d3c B2c2 d4 f4 ed | 
w:  *  Has ret  kal *  dım   |  dil *  be *  ri me    | 
d4{z}d2 g2g2 f2e2 d2c2  | e3d e2f2 d4 {z}B2c2 d2 | \
w:  *  Ye re  bat *  sın   |  Bü *  *  *  yük_ a  | 
B6 G2B2 c2d4c2  | 
w:  da  a man_ a man    | 
d4 {z}B2c2 B2A2 G6 | {z}d3cB2 c2d4e4ed  | \
w:  *  Bir  da ha  *  yâr   |  sev *  me *  ye yim    | 
e3d {z}d2g2 g2f2 e2d2 c2 | 
w:  *  *  Se ver sem  *  de   | 
e3de2 f2d4{z}B2 c2d2  | {z}B6{z}g2 gff^e f6 | \
w:  yüz  *  *  *  ver me  |  yim  a man_ *  a *  man    | 
{zz}e2 f4 fefg fef6  | 
w:  Yâr   | 
{z}fgab c'2ba aggf g4 fe | d3c{z}d2 e2e2 d2gf edc2  | 
w:  yâr  *  *  *  *  a *  man_ *  a *  man    |  *  *  Böy le  yâr *  sız   | 
{z}e3d e2f2 d4 {z}B2c2 d2 | B12z4z2  | \
w:  ka *  *  *  lır sam   |  da    | 
|


